icons/eye-24.svg

<svg width="24" height="24" viewBox="0 0 24 24" xmlns="http://www.w3.org/2000/svg">
  <path d="M15.4999 12C15.4999 13.933 13.9329 15.5 11.9999 15.5C10.0669 15.5 8.49988 13.933 8.49988 12C8.49988 10.067 10.0669 8.5 11.9999 8.5C13.9329 8.5 15.4999 10.067 15.4999 12Z"/>
  <path fill-rule="evenodd" clip-rule="evenodd" d="M12 3.50012C8.5681 3.50012 5.8755 5.03429 3.94591 6.74074C2.02028 8.44368 0.814406 10.3514 0.329595 11.2014C0.0449209 11.7005 0.0449199 12.2998 0.329594 12.7989C0.814405 13.6488 2.02028 15.5566 3.94591 17.2595C5.8755 18.966 8.5681 20.5001 12 20.5001C15.4319 20.5001 18.1245 18.9659 20.0541 17.2595C21.9797 15.5565 23.1856 13.6488 23.6704 12.7988C23.955 12.2997 23.955 11.7004 23.6704 11.2013C23.1856 10.3513 21.9797 8.44363 20.0541 6.74071C18.1245 5.03428 15.4319 3.50012 12 3.50012ZM1.63254 11.9446C2.07402 11.1706 3.18409 9.41688 4.9396 7.86438C6.69114 6.3154 9.04487 5.00012 12 5.00012C14.9552 5.00012 17.3089 6.31539 19.0604 7.86435C20.8159 9.41683 21.926 11.1705 22.3674 11.9445C22.3805 11.9675 22.3839 11.9861 22.3839 12.0001C22.3839 12.014 22.3805 12.0326 22.3674 12.0556C21.926 12.8296 20.8159 14.5833 19.0604 16.1358C17.3089 17.6848 14.9552 19.0001 12 19.0001C9.04487 19.0001 6.69114 17.6848 4.9396 16.1359C3.18409 14.5834 2.07402 12.8297 1.63254 12.0557C1.61942 12.0327 1.61609 12.0141 1.61609 12.0001C1.61609 11.9861 1.61942 11.9676 1.63254 11.9446Z"/>
</svg>

<svg xmlns="http://www.w3.org/2000/svg" width="24" height="24" viewBox="0 0 24 24"><path d="M15.5 12a3.5 3.5 0 11-7 0 3.5 3.5 0 017 0z"/><path fill-rule="evenodd" d="M12 3.5c-3.432 0-6.125 1.534-8.054 3.24C2.02 8.445.814 10.352.33 11.202a1.6 1.6 0 000 1.598c.484.85 1.69 2.758 3.616 4.46C5.876 18.966 8.568 20.5 12 20.5c3.432 0 6.125-1.534 8.054-3.24 1.926-1.704 3.132-3.611 3.616-4.461a1.6 1.6 0 000-1.598c-.484-.85-1.69-2.757-3.616-4.46C18.124 5.034 15.432 3.5 12 3.5zM1.633 11.945c.441-.774 1.551-2.528 3.307-4.08C6.69 6.314 9.045 5 12 5c2.955 0 5.309 1.315 7.06 2.864 1.756 1.553 2.866 3.307 3.307 4.08a.111.111 0 01.017.056.111.111 0 01-.017.056c-.441.774-1.551 2.527-3.307 4.08C17.31 17.685 14.955 19 12 19c-2.955 0-5.309-1.315-7.06-2.864-1.756-1.553-2.866-3.306-3.307-4.08A.11.11 0 011.616 12a.11.11 0 01.017-.055z"/></svg>
